static/img/kroki/ab3ceda355f013bbb3e554c6003c6c37.svg

<?xml version="1.0" encoding="us-ascii" standalone="no"?><svg xmlns="http://www.w3.org/2000/svg" xmlns:xlink="http://www.w3.org/1999/xlink" contentStyleType="text/css" height="152px" preserveAspectRatio="none" style="width:533px;height:152px;" version="1.1" viewBox="0 0 533 152" width="533px" zoomAndPan="magnify"><defs/><g><!--class azure_compute_disk--><g id="elem_azure_compute_disk"><rect codeLine="23" fill="#3D176E" height="39.7891" id="azure_compute_disk" rx="2.5" ry="2.5" style="stroke:#000D19;stroke-width:0.5;" width="212" x="7" y="7"/><ellipse cx="22" cy="26.8945" fill="#ADD1B2" rx="11" ry="11" style="stroke:#181818;stroke-width:1.0;"/><path d="M24.9688,32.5352 Q24.3906,32.832 23.75,32.9727 Q23.1094,33.1289 22.4063,33.1289 Q19.9063,33.1289 18.5781,31.4883 Q17.2656,29.832 17.2656,26.707 Q17.2656,23.582 18.5781,21.9258 Q19.9063,20.2695 22.4063,20.2695 Q23.1094,20.2695 23.75,20.4258 Q24.4063,20.582 24.9688,20.8789 L24.9688,23.5977 Q24.3438,23.0195 23.75,22.7539 Q23.1563,22.4727 22.5313,22.4727 Q21.1875,22.4727 20.5,23.5508 Q19.8125,24.6133 19.8125,26.707 Q19.8125,28.8008 20.5,29.8789 Q21.1875,30.9414 22.5313,30.9414 Q23.1563,30.9414 23.75,30.6758 Q24.3438,30.3945 24.9688,29.8164 L24.9688,32.5352 Z " fill="#000000"/><text fill="#D9B8FF" font-family="Helvetica" font-size="17" lengthAdjust="spacing" textLength="170" x="41" y="32.7798">azure_compute_disk</text></g><!--class azure_compute_disk_access--><g id="elem_azure_compute_disk_access"><rect codeLine="26" fill="#3D176E" height="39.7891" id="azure_compute_disk_access" rx="2.5" ry="2.5" style="stroke:#000D19;stroke-width:0.5;" width="273" x="253.5" y="7"/><ellipse cx="268.5" cy="26.8945" fill="#ADD1B2" rx="11" ry="11" style="stroke:#181818;stroke-width:1.0;"/><path d="M271.4688,32.5352 Q270.8906,32.832 270.25,32.9727 Q269.6094,33.1289 268.9063,33.1289 Q266.4063,33.1289 265.0781,31.4883 Q263.7656,29.832 263.7656,26.707 Q263.7656,23.582 265.0781,21.9258 Q266.4063,20.2695 268.9063,20.2695 Q269.6094,20.2695 270.25,20.4258 Q270.9063,20.582 271.4688,20.8789 L271.4688,23.5977 Q270.8438,23.0195 270.25,22.7539 Q269.6563,22.4727 269.0313,22.4727 Q267.6875,22.4727 267,23.5508 Q266.3125,24.6133 266.3125,26.707 Q266.3125,28.8008 267,29.8789 Q267.6875,30.9414 269.0313,30.9414 Q269.6563,30.9414 270.25,30.6758 Q270.8438,30.3945 271.4688,29.8164 L271.4688,32.5352 Z " fill="#000000"/><text fill="#D9B8FF" font-family="Helvetica" font-size="17" lengthAdjust="spacing" textLength="231" x="287.5" y="32.7798">azure_compute_disk_access</text></g><!--class azure_compute_virtual_machine_snapshot--><g id="elem_azure_compute_virtual_machine_snapshot"><rect codeLine="29" fill="#3D176E" height="39.7891" id="azure_compute_virtual_machine_snapshot" rx="2.5" ry="2.5" style="stroke:#000D19;stroke-width:0.5;" width="399" x="51.5" y="106.79"/><ellipse cx="66.5" cy="126.6845" fill="#ADD1B2" rx="11" ry="11" style="stroke:#181818;stroke-width:1.0;"/><path d="M69.4688,132.3252 Q68.8906,132.622 68.25,132.7627 Q67.6094,132.9189 66.9063,132.9189 Q64.4063,132.9189 63.0781,131.2783 Q61.7656,129.622 61.7656,126.497 Q61.7656,123.372 63.0781,121.7158 Q64.4063,120.0595 66.9063,120.0595 Q67.6094,120.0595 68.25,120.2158 Q68.9063,120.372 69.4688,120.6689 L69.4688,123.3877 Q68.8438,122.8095 68.25,122.5439 Q67.6563,122.2627 67.0313,122.2627 Q65.6875,122.2627 65,123.3408 Q64.3125,124.4033 64.3125,126.497 Q64.3125,128.5908 65,129.6689 Q65.6875,130.7314 67.0313,130.7314 Q67.6563,130.7314 68.25,130.4658 Q68.8438,130.1845 69.4688,129.6064 L69.4688,132.3252 Z " fill="#000000"/><text fill="#D9B8FF" font-family="Helvetica" font-size="17" lengthAdjust="spacing" textLength="357" x="85.5" y="132.5698">azure_compute_virtual_machine_snapshot</text></g><!--link azure_compute_disk to azure_compute_virtual_machine_snapshot--><g id="link_azure_compute_disk_azure_compute_virtual_machine_snapshot"><path codeLine="32" d="M140.26,47.22 C164.46,64.36 194.7257,85.7993 218.8957,102.9393 " fill="none" id="azure_compute_disk-to-azure_compute_virtual_machine_snapshot" style="stroke:#1A83AF;stroke-width:2.0;"/><polygon fill="#1A83AF" points="223.79,106.41,218.7624,97.941,219.7114,103.5177,214.1348,104.4667,223.79,106.41" style="stroke:#1A83AF;stroke-width:2.0;"/></g><!--link azure_compute_disk_access to azure_compute_virtual_machine_snapshot--><g id="link_azure_compute_disk_access_azure_compute_virtual_machine_snapshot"><path codeLine="33" d="M362.54,47.22 C338.17,64.36 307.667,85.8173 283.307,102.9573 " fill="none" id="azure_compute_disk_access-to-azure_compute_virtual_machine_snapshot" style="stroke:#1A83AF;stroke-width:2.0;"/><polygon fill="#1A83AF" points="278.4,106.41,288.0623,104.5024,282.4892,103.5328,283.4588,97.9596,278.4,106.41" style="stroke:#1A83AF;stroke-width:2.0;"/></g><!--SRC=[dP9HIyCm58NV-oi2Unwq3jts8jJ1q9SXpZUHSfVShA5DKcxIZKtyxwvE9RRh9hxcV3ddt9laIY13NVaTqwXNI2voXJ8L46YM4jdjp9QMs41AaADnMvnRuoy22z38xh7Se5SSsiHphdXXq3bs5KXtm8irsTg8exqdCEuWeV41DIl1kTHxKglQOr16J5SJATjastGm4idu1ZkO9O7qXSHnB99f6xaOTNRk7sAfziYIS6aBwx5JinFnIPrjsH11oSwWttflnqSGGfarkmxEdewTo23zEb_c8EoseIMKBenn7WcjtrKuwqo5qucGuvFmGnySyMPr3FOrOSQjhWxFdWdb2lOMHU-zQWQSDp-i5zeeyZMKcGQUAuEPCr2vtFhZZHDnmvT1aav6wVnrUFj7hwY_rt_SFW00]--></g></svg>

<svg xmlns="http://www.w3.org/2000/svg" width="533" height="152" viewBox="0 0 533 152"><rect width="212" height="39.789" x="7" y="7" fill="#3D176E" rx="2.5" ry="2.5" style="stroke:#000d19;stroke-width:.5"/><circle cx="22" cy="26.895" r="11" fill="#ADD1B2" style="stroke:#181818;stroke-width:1"/><path d="M24.969 32.535q-.578.297-1.219.438-.64.156-1.344.156-2.5 0-3.828-1.64-1.312-1.657-1.312-4.782t1.312-4.781q1.328-1.656 3.828-1.656.703 0 1.344.156.656.156 1.219.453v2.719q-.625-.578-1.219-.844-.594-.281-1.219-.281-1.343 0-2.031 1.078-.687 1.062-.687 3.156t.687 3.172q.688 1.062 2.031 1.062.625 0 1.219-.265.594-.281 1.219-.86z"/><text x="41" y="32.78" fill="#D9B8FF" font-family="Helvetica" font-size="17" textLength="170">azure_compute_disk</text><rect width="273" height="39.789" x="253.5" y="7" fill="#3D176E" rx="2.5" ry="2.5" style="stroke:#000d19;stroke-width:.5"/><circle cx="268.5" cy="26.895" r="11" fill="#ADD1B2" style="stroke:#181818;stroke-width:1"/><path d="M271.469 32.535q-.578.297-1.219.438-.64.156-1.344.156-2.5 0-3.828-1.64-1.312-1.657-1.312-4.782t1.312-4.781q1.328-1.656 3.828-1.656.703 0 1.344.156.656.156 1.219.453v2.719q-.625-.578-1.219-.844-.594-.281-1.219-.281-1.344 0-2.031 1.078-.687 1.062-.687 3.156t.687 3.172q.688 1.062 2.031 1.062.625 0 1.219-.265.594-.281 1.219-.86z"/><text x="287.5" y="32.78" fill="#D9B8FF" font-family="Helvetica" font-size="17" textLength="231">azure_compute_disk_access</text><rect width="399" height="39.789" x="51.5" y="106.79" fill="#3D176E" rx="2.5" ry="2.5" style="stroke:#000d19;stroke-width:.5"/><circle cx="66.5" cy="126.684" r="11" fill="#ADD1B2" style="stroke:#181818;stroke-width:1"/><path d="M69.469 132.325q-.578.297-1.219.438-.64.156-1.344.156-2.5 0-3.828-1.64-1.312-1.657-1.312-4.782t1.312-4.781q1.328-1.656 3.828-1.656.703 0 1.344.156.656.156 1.219.453v2.719q-.625-.579-1.219-.844-.594-.281-1.219-.281-1.344 0-2.031 1.078-.687 1.062-.687 3.156t.687 3.172q.688 1.062 2.031 1.062.625 0 1.219-.265.594-.281 1.219-.86z"/><text x="85.5" y="132.57" fill="#D9B8FF" font-family="Helvetica" font-size="17" textLength="357">azure_compute_virtual_machine_snapshot</text><path fill="none" d="M140.26 47.22c24.2 17.14 54.466 38.58 78.636 55.72" style="stroke:#1a83af;stroke-width:2"/><path fill="#1A83AF" d="m223.79 106.41-5.028-8.469.95 5.577-5.577.949z" style="stroke:#1a83af;stroke-width:2"/><path fill="none" d="M362.54 47.22c-24.37 17.14-54.873 38.597-79.233 55.737" style="stroke:#1a83af;stroke-width:2"/><path fill="#1A83AF" d="m278.4 106.41 9.662-1.908-5.573-.97.97-5.572z" style="stroke:#1a83af;stroke-width:2"/></svg>
